src/assets/outline/LockCircle.svg

<svg width="24" height="24" viewBox="0 0 24 24"  xmlns="http://www.w3.org/2000/svg">
<path d="M15 11.75C14.59 11.75 14.25 11.41 14.25 11V10C14.25 8.54 13.89 7.75 12 7.75C10.11 7.75 9.75 8.54 9.75 10V11C9.75 11.41 9.41 11.75 9 11.75C8.59 11.75 8.25 11.41 8.25 11V10C8.25 9.07 8.25 6.25 12 6.25C15.75 6.25 15.75 9.07 15.75 10V11C15.75 11.41 15.41 11.75 15 11.75Z" />
<path d="M11.9999 15.3499C11.2599 15.3499 10.6499 14.7399 10.6499 13.9999C10.6499 13.2599 11.2599 12.6499 11.9999 12.6499C12.7399 12.6499 13.3499 13.2599 13.3499 13.9999C13.3499 14.7399 12.7399 15.3499 11.9999 15.3499ZM11.9999 13.8499C11.9199 13.8499 11.8499 13.9199 11.8499 13.9999C11.8499 14.1699 12.1499 14.1699 12.1499 13.9999C12.1499 13.9199 12.0799 13.8499 11.9999 13.8499Z" />
<path d="M14.5 17.75H9.5C7.1 17.75 6.25 16.9 6.25 14.5V13.5C6.25 11.1 7.1 10.25 9.5 10.25H14.5C16.9 10.25 17.75 11.1 17.75 13.5V14.5C17.75 16.9 16.9 17.75 14.5 17.75ZM9.5 11.75C7.91 11.75 7.75 11.91 7.75 13.5V14.5C7.75 16.09 7.91 16.25 9.5 16.25H14.5C16.09 16.25 16.25 16.09 16.25 14.5V13.5C16.25 11.91 16.09 11.75 14.5 11.75H9.5Z" />
<path d="M12 22.75C6.07 22.75 1.25 17.93 1.25 12C1.25 6.07 6.07 1.25 12 1.25C17.93 1.25 22.75 6.07 22.75 12C22.75 17.93 17.93 22.75 12 22.75ZM12 2.75C6.9 2.75 2.75 6.9 2.75 12C2.75 17.1 6.9 21.25 12 21.25C17.1 21.25 21.25 17.1 21.25 12C21.25 6.9 17.1 2.75 12 2.75Z" />
</svg>

<?xml version="1.0" encoding="UTF-8"?>
<svg width="24" height="24" viewBox="0 0 24 24" xmlns="http://www.w3.org/2000/svg">
 <path d="m15 11.75c-0.41 0-0.75-0.34-0.75-0.75v-1c0-1.46-0.36-2.25-2.25-2.25s-2.25 0.79-2.25 2.25v1c0 0.41-0.34 0.75-0.75 0.75s-0.75-0.34-0.75-0.75v-1c0-0.93 0-3.75 3.75-3.75s3.75 2.82 3.75 3.75v1c0 0.41-0.34 0.75-0.75 0.75z"/>
 <path d="m12 15.35c-0.74 0-1.35-0.61-1.35-1.35s0.61-1.35 1.35-1.35 1.35 0.61 1.35 1.35-0.61 1.35-1.35 1.35zm0-1.5c-0.08 0-0.15 0.07-0.15 0.15 0 0.17 0.3 0.17 0.3 0 0-0.08-0.07-0.15-0.15-0.15z"/>
 <path d="m14.5 17.75h-5c-2.4 0-3.25-0.85-3.25-3.25v-1c0-2.4 0.85-3.25 3.25-3.25h5c2.4 0 3.25 0.85 3.25 3.25v1c0 2.4-0.85 3.25-3.25 3.25zm-5-6c-1.59 0-1.75 0.16-1.75 1.75v1c0 1.59 0.16 1.75 1.75 1.75h5c1.59 0 1.75-0.16 1.75-1.75v-1c0-1.59-0.16-1.75-1.75-1.75h-5z"/>
 <path d="m12 22.75c-5.93 0-10.75-4.82-10.75-10.75s4.82-10.75 10.75-10.75 10.75 4.82 10.75 10.75-4.82 10.75-10.75 10.75zm0-20c-5.1 0-9.25 4.15-9.25 9.25s4.15 9.25 9.25 9.25 9.25-4.15 9.25-9.25-4.15-9.25-9.25-9.25z"/>
</svg>
